X:179
T:London Pride
R:hp 32
M:4/4
L:1/8
S:As played by John Kirkpatrick on the Albion Country Band album "Battle of the Field."
S:Transcribed/arranged by Doug Mast.
K:C
"F"A3B c2A2|"C"GF ED C4|"Dm"D2 A2 "Am"AG FE|1 "Dm"D3E F2G2 :|2 "Dm"D4 D4||
|:"F"A3B c2A2|"G"dc BA "Em"G4 |"Dm"A2 A2 "G"B2 B2 | "Dm"d4 "F"A4 |
"F"A3B c2A2|"C"GF ED C4|"Dm"D2 A2 "Am"AG FE|1 "Dm"D3E F2G2 :|2 "Dm"D4 D4||

